X:118
T:La Petite Nanette. RH.118
R:Quadrille
S:Rev.R.Harrison’s MS,c1815,Cumbria
O:England
A:Temple Sowerby,Cumbria
Z:vmp.Simon Wilson. Review PJH, 2008.
M:6/8
L:1/8
Q:3/8=120
K:G
b>c’b|\
(a2d’) g2g|(f2a) e2e|dc’b c’ad’|bgd b>c’b|!
(a2d’) g2g|f2b e2e|d2b {b}aga|” Fine”g3:|!
dfg|a3 c’3|b3 d’3|f3 a3|gbg dfg|!
a3 c’3|b3 d’3|{d’}c’bc’ afd|g3 dfg|!
{b}a^ga c’2c’|{d’}bab d’2d’|{g}fef a2a|gbg dfg|!
aaa abc’|bbb bc’d’|c’2c’ a2a|g2g (g/a/b/a/g/f/)|!
[G3c3e3] [B3e3g3]|[e3g3b3-] bag|\
gfe efg|[eg][df][df] [d3f3]|!
[B3^d3f3] [d3f3a3]|[f3a3c’3-] c’bf|egb af^d|e3|]

